assets/Man student/Dark/Flat/man_student_flat_dark.svg

<svg width="32" height="32" viewBox="0 0 32 32" fill="none" xmlns="http://www.w3.org/2000/svg">
<path d="M11.4115 16.5H20.5866C19.1907 15.8579 17.6372 15.5 16 15.5C14.3627 15.5 12.8085 15.8579 11.4115 16.5Z" fill="#212121"/>
<path d="M23 18.5H9L7 24L9 30H23L25 24L23 18.5Z" fill="#212121"/>
<path d="M23 30L23 18.5936C21.6303 21.054 19.0178 22.72 16 22.72C12.9833 22.72 10.3625 21.0551 9.00005 18.5961V30H5.00005V26.5C4.99005 23.09 6.57005 20.03 9.00005 18V18.0128C10.9012 16.4481 13.3391 15.5 16 15.5C18.661 15.5 21.0989 16.4388 23 18.0117V18C25.45 20.02 27 23.09 27 26.5V30H23Z" fill="black"/>
<path d="M12.5 29.99V24.74C12.5 24.46 12.28 24.24 12 24.24C11.72 24.24 11.5 24.46 11.5 24.74V29.99H12.5Z" fill="black"/>
<path d="M16.5 29.99V24.74C16.5 24.46 16.28 24.24 16 24.24C15.72 24.24 15.5 24.46 15.5 24.74V29.99H16.5Z" fill="black"/>
<path d="M20.5 29.99V24.74C20.5 24.46 20.28 24.24 20 24.24C19.72 24.24 19.5 24.46 19.5 24.74V29.99H20.5Z" fill="black"/>
<path d="M16.9201 18.2801L16.2701 18.8601C16.1101 19.0001 15.8801 19.0001 15.7201 18.8601L15.0701 18.2801C14.3501 17.6301 13.9301 16.7001 13.9301 15.7301V12.6401C13.9301 11.5001 14.8501 10.5801 15.9901 10.5801C17.1301 10.5801 18.0501 11.5001 18.0501 12.6401V15.7301C18.0501 16.7001 17.6401 17.6301 16.9201 18.2801Z" fill="#452829"/>
<path d="M10.0995 5.07369C9.85394 5.47386 9.75449 5.96041 9.83992 6.4502L10.3999 9.5202C10.4599 9.8302 10.7199 10.0502 11.0299 10.0602L12 8.00021V6.00021L12.0214 5.53212L11 5.0002L10.0995 5.07369Z" fill="black"/>
<path d="M20.198 5.52625L20 6.00021V8.00021L21.2099 10.0502C21.5099 10.0302 21.7699 9.8102 21.8199 9.5102L22.3799 6.4402C22.4673 6.00315 22.3961 5.5661 22.2016 5.19158L20.7899 4.88184L20.198 5.52625Z" fill="black"/>
<path d="M12.98 10.65C12.98 11.5502 12.2502 12.28 11.35 12.28C10.4497 12.28 9.71997 11.5502 9.71997 10.65C9.71997 9.7498 10.4497 9.02002 11.35 9.02002C12.2502 9.02002 12.98 9.7498 12.98 10.65Z" fill="#4E3233"/>
<path d="M22.53 10.65C22.53 11.5502 21.8002 12.28 20.9 12.28C19.9998 12.28 19.27 11.5502 19.27 10.65C19.27 9.7498 19.9998 9.02002 20.9 9.02002C21.8002 9.02002 22.53 9.7498 22.53 10.65Z" fill="#4E3233"/>
<path d="M10.9488 8.8903C10.9422 8.79613 10.9358 8.70475 10.9299 8.62C10.9099 8.33 11.0299 8.05 11.2399 7.86L11.4299 7.7C11.6799 7.48 11.8199 7.15 11.8199 6.82V5.95C11.8199 5.71 11.9899 5.49 12.2199 5.43C12.8599 5.27 14.2199 5 16.1099 5C17.9999 5 19.3599 5.27 19.9999 5.43C20.2399 5.49 20.3999 5.7 20.3999 5.95V6.81C20.3999 7.15 20.5399 7.47 20.7899 7.69L20.9999 7.87C21.2126 8.05367 21.3224 8.32143 21.3115 8.60103L20.93 14.03C20.76 15.77 19.39 17.01 17.72 17.01H14.52C12.85 17.01 11.48 15.77 11.31 14.03L10.9488 8.8903Z" fill="#573739"/>
<path d="M16.12 13.7099C15.58 13.7099 15.08 13.5799 14.65 13.3599C14.51 13.2799 14.35 13.4499 14.44 13.5899C14.8 14.1399 15.41 14.4999 16.12 14.4999C16.83 14.4999 17.44 14.1399 17.8 13.5899C17.89 13.4499 17.73 13.2899 17.59 13.3599C17.16 13.5799 16.66 13.7099 16.12 13.7099Z" fill="#290118"/>
<path d="M15.75 10.3701L15.23 12.0401C15.12 12.3801 15.38 12.7301 15.74 12.7301H16.5C16.86 12.7301 17.11 12.3801 17.01 12.0401L16.5 10.3701C16.38 10.0101 15.87 10.0101 15.75 10.3701Z" fill="#3D2123"/>
<path d="M12.3899 10.34C12.5399 9.74004 13.0899 9.29004 13.7399 9.29004C14.4199 9.29004 14.9799 9.78004 15.1099 10.41C15.1299 10.55 15.0199 10.68 14.8799 10.68H12.6599C12.4899 10.68 12.3499 10.52 12.3899 10.34Z" fill="white"/>
<path d="M19.8599 10.34C19.7099 9.74004 19.1599 9.29004 18.5099 9.29004C17.8299 9.29004 17.2699 9.78004 17.1399 10.41C17.1199 10.55 17.2299 10.68 17.3699 10.68H19.5899C19.7699 10.68 19.8999 10.51 19.8599 10.34Z" fill="white"/>
<path d="M13.0599 10.4501C13.0599 9.96006 13.4599 9.56006 13.9499 9.56006C14.4399 9.56006 14.8399 9.96006 14.8299 10.4501C14.8299 10.5401 14.8199 10.6101 14.7999 10.6901H13.0899C13.0699 10.6101 13.0599 10.5301 13.0599 10.4501Z" fill="#7D4533"/>
<path d="M19.19 10.4501C19.19 9.96006 18.79 9.56006 18.3 9.56006C17.81 9.56006 17.41 9.96006 17.42 10.4501C17.42 10.5401 17.43 10.6101 17.45 10.6901H19.16C19.18 10.6101 19.19 10.5301 19.19 10.4501Z" fill="#7D4533"/>
<path d="M13.9499 9.93994C14.2299 9.93994 14.4599 10.1699 14.4599 10.4499C14.4599 10.5299 14.4399 10.6099 14.3999 10.6899H13.4999C13.4599 10.6199 13.4399 10.5399 13.4399 10.4499C13.4399 10.1699 13.6699 9.93994 13.9499 9.93994Z" fill="black"/>
<path d="M18.2999 9.93994C18.0199 9.93994 17.7899 10.1699 17.7899 10.4499C17.7899 10.5299 17.8099 10.6099 17.8499 10.6899H18.7499C18.7899 10.6199 18.8099 10.5399 18.8099 10.4499C18.8099 10.1699 18.5799 9.93994 18.2999 9.93994Z" fill="black"/>
<path d="M13.81 10.0999C13.81 10.1883 13.7384 10.2599 13.65 10.2599C13.5616 10.2599 13.49 10.1883 13.49 10.0999C13.49 10.0116 13.5616 9.93994 13.65 9.93994C13.7384 9.93994 13.81 10.0116 13.81 10.0999Z" fill="white"/>
<path d="M18.1899 10.0999C18.1899 10.1883 18.1182 10.2599 18.0299 10.2599C17.9415 10.2599 17.8699 10.1883 17.8699 10.0999C17.8699 10.0116 17.9415 9.93994 18.0299 9.93994C18.1182 9.93994 18.1899 10.0116 18.1899 10.0999Z" fill="white"/>
<path d="M19.2099 8.79997C19.3099 8.86997 19.4299 8.90997 19.5399 8.90997C19.6999 8.90997 19.8599 8.83997 19.9699 8.69997C20.1499 8.45997 20.1099 8.10997 19.8699 7.92997C19.8399 7.89997 19.0199 7.27997 17.8199 7.41997C17.5199 7.45997 17.2999 7.72997 17.3399 8.02997C17.3799 8.32997 17.6499 8.54997 17.9499 8.50997C18.6586 8.4226 19.1505 8.75931 19.2061 8.79736C19.2078 8.79851 19.2099 8.79997 19.2099 8.79997Z" fill="black"/>
<path d="M12.28 8.68998C12.39 8.83998 12.55 8.90998 12.72 8.90998C12.83 8.90998 12.94 8.87998 13.04 8.79998C13.04 8.79998 13.0449 8.79692 13.0507 8.79312C13.1296 8.74145 13.6106 8.42614 14.3 8.50998C14.6 8.54998 14.87 8.32998 14.91 8.03998C14.94 7.73998 14.73 7.46998 14.43 7.42998C13.24 7.28998 12.41 7.90998 12.38 7.93998C12.14 8.11998 12.1 8.45998 12.28 8.68998Z" fill="black"/>
<path d="M25.33 13.7799C25.22 13.4299 24.9 13.1699 24.51 13.1699C24.12 13.1699 23.8 13.4199 23.69 13.7799L23.11 15.8899C23.04 16.1299 23.22 16.3699 23.47 16.3699H25.54C25.79 16.3699 25.97 16.1299 25.9 15.8899L25.33 13.7799Z" fill="#F9C23C"/>
<path d="M21.3453 3.6H24.11C24.11 3.6 24.1099 3.6 24.11 3.6L24.11 11.68C23.84 11.82 23.65 12.11 23.65 12.44C23.65 12.91 24.03 13.3 24.51 13.3C24.99 13.3 25.37 12.92 25.37 12.44C25.37 12.11 25.18 11.82 24.91 11.68V2.79999L24.9 2.8C24.9 2.36 24.54 2 24.1 2H8.13997C7.69997 2 7.33997 2.36 7.33997 2.8C7.33997 3.24 7.69997 3.6 8.13997 3.6H10.91L10.0299 5.20001L14.5899 5.96001C15.6099 6.11001 16.6399 6.11001 17.6599 5.95001L22.2099 5.19001L21.3453 3.6Z" fill="#1C1C1C"/>
</svg>

<svg xmlns="http://www.w3.org/2000/svg" width="32" height="32" fill="none"><path fill="#212121" d="M11.412 16.5h9.175c-1.396-.642-2.95-1-4.587-1-1.637 0-3.191.358-4.588 1ZM23 18.5H9L7 24l2 6h14l2-6-2-5.5Z"/><path fill="#000" d="M23 30V18.594c-1.37 2.46-3.982 4.126-7 4.126a7.99 7.99 0 0 1-7-4.124V30H5v-3.5c-.01-3.41 1.57-6.47 4-8.5v.013a10.982 10.982 0 0 1 7-2.513c2.661 0 5.099.939 7 2.512V18c2.45 2.02 4 5.09 4 8.5V30h-4Z"/><path fill="#000" d="M12.5 29.99v-5.25c0-.28-.22-.5-.5-.5s-.5.22-.5.5v5.25h1ZM16.5 29.99v-5.25c0-.28-.22-.5-.5-.5s-.5.22-.5.5v5.25h1ZM20.5 29.99v-5.25c0-.28-.22-.5-.5-.5s-.5.22-.5.5v5.25h1Z"/><path fill="#452829" d="m16.92 18.28-.65.58c-.16.14-.39.14-.55 0l-.65-.58a3.449 3.449 0 0 1-1.14-2.55v-3.09c0-1.14.92-2.06 2.06-2.06 1.14 0 2.06.92 2.06 2.06v3.09c0 .97-.41 1.9-1.13 2.55Z"/><path fill="#000" d="M10.1 5.074c-.246.4-.346.886-.26 1.376l.56 3.07c.06.31.32.53.63.54L12 8V6l.021-.468L11 5l-.9.074ZM20.198 5.526 20 6v2l1.21 2.05c.3-.02.56-.24.61-.54l.56-3.07a1.896 1.896 0 0 0-.178-1.248l-1.412-.31-.592.644Z"/><path fill="#4E3233" d="M12.98 10.65a1.63 1.63 0 1 1-3.26 0 1.63 1.63 0 0 1 3.26 0ZM22.53 10.65a1.63 1.63 0 1 1-3.26 0 1.63 1.63 0 0 1 3.26 0Z"/><path fill="#573739" d="m10.949 8.89-.02-.27c-.02-.29.1-.57.31-.76l.19-.16c.25-.22.39-.55.39-.88v-.87c0-.24.17-.46.4-.52.64-.16 2-.43 3.89-.43 1.89 0 3.25.27 3.89.43.24.06.4.27.4.52v.86c0 .34.14.66.39.88l.21.18a.91.91 0 0 1 .313.731l-.382 5.429c-.17 1.74-1.54 2.98-3.21 2.98h-3.2c-1.67 0-3.04-1.24-3.21-2.98l-.361-5.14Z"/><path fill="#290118" d="M16.12 13.71c-.54 0-1.04-.13-1.47-.35-.14-.08-.3.09-.21.23.36.55.97.91 1.68.91s1.32-.36 1.68-.91c.09-.14-.07-.3-.21-.23-.43.22-.93.35-1.47.35Z"/><path fill="#3D2123" d="m15.75 10.37-.52 1.67c-.11.34.15.69.51.69h.76c.36 0 .61-.35.51-.69l-.51-1.67a.395.395 0 0 0-.75 0Z"/><path fill="#fff" d="M12.39 10.34c.15-.6.7-1.05 1.35-1.05.68 0 1.24.49 1.37 1.12.02.14-.09.27-.23.27h-2.22a.28.28 0 0 1-.27-.34ZM19.86 10.34c-.15-.6-.7-1.05-1.35-1.05-.68 0-1.24.49-1.37 1.12-.02.14.09.27.23.27h2.22c.18 0 .31-.17.27-.34Z"/><path fill="#7D4533" d="M13.06 10.45c0-.49.4-.89.89-.89s.89.4.88.89c0 .09-.01.16-.03.24h-1.71a.986.986 0 0 1-.03-.24ZM19.19 10.45c0-.49-.4-.89-.89-.89s-.89.4-.88.89c0 .09.01.16.03.24h1.71c.02-.08.03-.16.03-.24Z"/><path fill="#000" d="M13.95 9.94a.512.512 0 0 1 .45.75h-.9a.512.512 0 0 1 .45-.75ZM18.3 9.94a.512.512 0 0 0-.45.75h.9a.512.512 0 0 0-.45-.75Z"/><path fill="#fff" d="M13.81 10.1a.16.16 0 1 1-.32 0 .16.16 0 0 1 .32 0ZM18.19 10.1a.16.16 0 1 1-.32 0 .16.16 0 0 1 .32 0Z"/><path fill="#000" d="M19.21 8.8a.544.544 0 0 0 .76-.1c.18-.24.14-.59-.1-.77-.03-.03-.85-.65-2.05-.51a.55.55 0 0 0 .13 1.09c.709-.087 1.2.25 1.256.287l.004.003ZM12.28 8.69c.11.15.27.22.44.22.11 0 .22-.03.32-.11l.01-.007c.08-.052.56-.367 1.25-.283.3.04.57-.18.61-.47.03-.3-.18-.57-.48-.61-1.19-.14-2.02.48-2.05.51a.53.53 0 0 0-.1.75Z"/><path fill="#F9C23C" d="M25.33 13.78a.861.861 0 0 0-.82-.61c-.39 0-.71.25-.82.61l-.58 2.11c-.07.24.11.48.36.48h2.07c.25 0 .43-.24.36-.48l-.57-2.11Z"/><path fill="#1C1C1C" d="M21.345 3.6h2.765v8.08a.86.86 0 1 0 .8 0V2.8h-.01c0-.44-.36-.8-.8-.8H8.14c-.44 0-.8.36-.8.8 0 .44.36.8.8.8h2.77l-.88 1.6 4.56.76c1.02.15 2.05.15 3.07-.01l4.55-.76-.865-1.59Z"/></svg>
